newicons/emoji_department_store.svg

<?xml version="1.0" encoding="UTF-8" standalone="no"?>
<svg
   version="1.2"
   viewBox="0 0 48 48"
   id="svg16"
   xmlns="http://www.w3.org/2000/svg"
   xmlns:svg="http://www.w3.org/2000/svg">
  <defs
     id="defs1" />
  <path
     d="m 8.570707,5.5 h 30.858586 v 37 H 8.570707 v -37"
     fill="none"
     stroke="#ffffff"
     stroke-linecap="round"
     stroke-linejoin="round"
     stroke-width="1"
     id="path1"
     style="stroke-width:1;stroke-dasharray:none" />
  <path
     d="m 11.656565,34.791666 h 6.171718 V 42.5 h -6.171718 v -7.708334"
     fill="none"
     stroke="#ffffff"
     stroke-linecap="round"
     stroke-linejoin="round"
     stroke-width="1"
     id="path2"
     style="stroke-width:1;stroke-dasharray:none" />
  <path
     d="m 30.171717,34.791666 h 6.171718 V 42.5 h -6.171718 v -7.708334"
     fill="none"
     stroke="#ffffff"
     stroke-linecap="round"
     stroke-linejoin="round"
     stroke-width="1"
     id="path3"
     style="stroke-width:1;stroke-dasharray:none" />
  <path
     d="m 20.914141,34.791666 h 6.171718 V 42.5 h -6.171718 v -7.708334"
     fill="none"
     stroke="#ffffff"
     stroke-linecap="round"
     stroke-linejoin="round"
     stroke-width="1"
     id="path4"
     style="stroke-width:1;stroke-dasharray:none" />
  <path
     d="m 8.570707,24 h 7.714646 v 7.708334 H 8.570707 V 24"
     fill="none"
     stroke="#ffffff"
     stroke-linecap="round"
     stroke-linejoin="round"
     stroke-width="1"
     id="path5"
     style="stroke-width:1;stroke-dasharray:none" />
  <path
     d="M 16.285353,24 H 24 v 7.708334 H 16.285353 V 24"
     fill="none"
     stroke="#ffffff"
     stroke-linecap="round"
     stroke-linejoin="round"
     stroke-width="1"
     id="path6"
     style="stroke-width:1;stroke-dasharray:none" />
  <path
     d="m 24,24 h 7.714647 v 7.708334 H 24 V 24"
     fill="none"
     stroke="#ffffff"
     stroke-linecap="round"
     stroke-linejoin="round"
     stroke-width="1"
     id="path7"
     style="stroke-width:1;stroke-dasharray:none" />
  <path
     d="m 31.714647,24 h 7.714646 v 7.708334 H 31.714647 V 24"
     fill="none"
     stroke="#ffffff"
     stroke-linecap="round"
     stroke-linejoin="round"
     stroke-width="1"
     id="path8"
     style="stroke-width:1;stroke-dasharray:none" />
  <path
     d="m 8.570707,16.291666 h 7.714646 V 24 H 8.570707 v -7.708334"
     fill="none"
     stroke="#ffffff"
     stroke-linecap="round"
     stroke-linejoin="round"
     stroke-width="1"
     id="path9"
     style="stroke-width:1;stroke-dasharray:none" />
  <path
     d="M 16.285353,16.291666 H 24 V 24 h -7.714647 v -7.708334"
     fill="none"
     stroke="#ffffff"
     stroke-linecap="round"
     stroke-linejoin="round"
     stroke-width="1"
     id="path10"
     style="stroke-width:1;stroke-dasharray:none" />
  <path
     d="m 24,16.291666 h 7.714647 V 24 H 24 v -7.708334"
     fill="none"
     stroke="#ffffff"
     stroke-linecap="round"
     stroke-linejoin="round"
     stroke-width="1"
     id="path11"
     style="stroke-width:1;stroke-dasharray:none" />
  <path
     d="m 31.714647,16.291666 h 7.714646 V 24 h -7.714646 v -7.708334"
     fill="none"
     stroke="#ffffff"
     stroke-linecap="round"
     stroke-linejoin="round"
     stroke-width="1"
     id="path12"
     style="stroke-width:1;stroke-dasharray:none" />
  <path
     d="m 8.570707,8.583334 h 7.714646 v 7.708332 H 8.570707 V 8.583334"
     fill="none"
     stroke="#ffffff"
     stroke-linecap="round"
     stroke-linejoin="round"
     stroke-width="1"
     id="path13"
     style="stroke-width:1;stroke-dasharray:none" />
  <path
     d="M 16.285353,8.583334 H 24 v 7.708332 H 16.285353 V 8.583334"
     fill="none"
     stroke="#ffffff"
     stroke-linecap="round"
     stroke-linejoin="round"
     stroke-width="1"
     id="path14"
     style="stroke-width:1;stroke-dasharray:none" />
  <path
     d="m 24,8.583334 h 7.714647 v 7.708332 H 24 V 8.583334"
     fill="none"
     stroke="#ffffff"
     stroke-linecap="round"
     stroke-linejoin="round"
     stroke-width="1"
     id="path15"
     style="stroke-width:1;stroke-dasharray:none" />
  <path
     d="m 31.714647,8.583334 h 7.714646 v 7.708332 H 31.714647 V 8.583334"
     fill="none"
     stroke="#ffffff"
     stroke-linecap="round"
     stroke-linejoin="round"
     stroke-width="1"
     id="path16"
     style="stroke-width:1;stroke-dasharray:none" />
</svg>

<?xml version="1.0" encoding="UTF-8"?><svg id="b" xmlns="http://www.w3.org/2000/svg" viewBox="0 0 48 48"><defs><style>.s{fill:none;stroke:#fff;stroke-linecap:round;stroke-linejoin:round;}</style></defs><path id="c" class="s" d="m8.5707,5.5h30.8586v37H8.5707V5.5"/><path id="d" class="s" d="m11.6566,34.7917h6.1717v7.7083h-6.1717v-7.7083"/><path id="e" class="s" d="m30.1717,34.7917h6.1717v7.7083h-6.1717v-7.7083"/><path id="f" class="s" d="m20.9141,34.7917h6.1717v7.7083h-6.1717v-7.7083"/><path id="g" class="s" d="m8.5707,24h7.7146v7.7083h-7.7146v-7.7083"/><path id="h" class="s" d="m16.2854,24h7.7146v7.7083h-7.7146v-7.7083"/><path id="i" class="s" d="m24,24h7.7146v7.7083h-7.7146v-7.7083"/><path id="j" class="s" d="m31.7146,24h7.7146v7.7083h-7.7146v-7.7083"/><path id="k" class="s" d="m8.5707,16.2917h7.7146v7.7083h-7.7146v-7.7083"/><path id="l" class="s" d="m16.2854,16.2917h7.7146v7.7083h-7.7146v-7.7083"/><path id="m" class="s" d="m24,16.2917h7.7146v7.7083h-7.7146v-7.7083"/><path id="n" class="s" d="m31.7146,16.2917h7.7146v7.7083h-7.7146v-7.7083"/><path id="o" class="s" d="m8.5707,8.5833h7.7146v7.7083h-7.7146v-7.7083"/><path id="p" class="s" d="m16.2854,8.5833h7.7146v7.7083h-7.7146v-7.7083"/><path id="q" class="s" d="m24,8.5833h7.7146v7.7083h-7.7146v-7.7083"/><path id="r" class="s" d="m31.7146,8.5833h7.7146v7.7083h-7.7146v-7.7083"/></svg>
